X: 19791
T: Jer O'Connell's
R: polka
M: 2/4
K: Dmajor
|:A/B/|AD F>G|A>^G AB|=c/B/A GE|EF GA/B/|
AD FG|A>^G AB|=c/B/A GE|ED D:|
|:F/G/|Ad d>e|fd ed|cA AB|cd ed/c/|
Ad de|fg/f/ ed|c/B/A GE|ED D:|

